X: 1020
T: I'll Tell My Ma (A9)
N: page A9
N: heptatonic
N: matches 412
R: polka
O: Trad Ireland
M: 2/4
L: 1/8
K: G
D/ \
|  "G"DG B>B | "C"cB "G"B>B | "D7"BA A>B |\
 "G"AG G>G |"G"DG B>B | "C"cB "G"B>B |
 "D7"BA A>B | "G"AG G2 || "Bm"dd dB  |\
 "Am"cc cA | "G"BB/B/ BG | "D7"AF ED |
   "G"dd "G7"dB |"C"cc c2 | "G"BG/G/ "D7"AF | "G"GG G3/2 |]
